img/tezba.svg

<svg xmlns="http://www.w3.org/2000/svg" width="104" height="80" viewBox="-16 -24 104 80"><path class="hidden" d="M79.003 31.392a.964.964 0 0 1 0-1.927h4.533c.531 0 .964.433.964.964s-.433.963-.964.963h-4.533zm-90.54 0a.964.964 0 0 1 0-1.927h4.529c.533 0 .967.433.967.964s-.434.963-.967.963h-4.529zM75.734 14.93a.959.959 0 0 1-.89-.599.967.967 0 0 1 .521-1.255l2.094-.863a.957.957 0 0 1 1.256.522.966.966 0 0 1-.52 1.256l-2.093.867a.968.968 0 0 1-.368.072zm-79.47-.001a.978.978 0 0 1-.362-.069l-2.097-.868a.972.972 0 0 1-.526-1.254.964.964 0 0 1 1.266-.524l2.087.859a.974.974 0 0 1 .527 1.255.973.973 0 0 1-.895.601zM66.418.981a.964.964 0 0 1-.686-1.646l3.195-3.204a.966.966 0 0 1 1.363-.003c.378.38.378.991.004 1.366L67.098.699a.965.965 0 0 1-.68.282zm-60.832 0a.96.96 0 0 1-.684-.284L1.706-2.506a.965.965 0 0 1 1.366-1.361L6.268-.663A.96.96 0 0 1 5.586.981zM52.459-8.35c-.116 0-.234-.022-.352-.066a.97.97 0 0 1-.537-1.268l.865-2.084a.963.963 0 1 1 1.781.734l-.863 2.087a.97.97 0 0 1-.894.597zm-32.921 0a.965.965 0 0 1-.89-.594l-.863-2.089a.964.964 0 0 1 .888-1.331c.397 0 .748.236.893.602l.863 2.078c.098.238.098.5-.001.739a.958.958 0 0 1-.89.595zM36-11.617a.966.966 0 0 1-.963-.967v-4.525a.964.964 0 0 1 1.926 0v4.525a.966.966 0 0 1-.963.967z"/><linearGradient id="a" gradientUnits="userSpaceOnUse" x1="683.63" y1="654.994" x2="745.61" y2="654.994" gradientTransform="translate(-678.62 -627.62)"><stop offset="0" stop-color="#0ed0ff"/><stop offset="1" stop-color="#42d67e"/></linearGradient><path fill="url(#a)" d="M64.355 27.429l2.143-1.254v-8.9l.488-.285-.488-.287-30.5-17.956-30.5 17.956-.487.287.488.284v8.9l2.135 1.25-2.624 1.543.488.285v8.9l30.247 17.701.253.147 30.5-17.848v-8.901l.492-.287-2.635-1.535zM35.999-.093l29.013 17.08-29.013 16.976L6.986 16.985 35.999-.093zm-29.5 25.695V17.86l29.247 17.114.253.148 29.5-17.263v7.742l-2.133 1.249h-.003L35.999 42.863 8.875 26.992l-.076-.044-2.3-1.346zm2.124 2.4l27.123 15.871.253.148 27.367-16.015 1.643.958-29.01 16.977L6.987 28.965l1.636-.963zm56.875 9.578l-29.5 17.262-29.5-17.262v-7.742l29.247 17.113.253.148 29.5-17.263v7.744zM35.499 51.998h1v-3.424h-1v3.424zM8.922 36.499h1v-3.424h-1v3.424zm2.571 1.712h1V34.79h-1v3.421zm2.572 1.715h1v-3.424h-1v3.424zm45.898-6.013l-4.424 2.654v5.273l4.424-2.654v-5.273zm-1 4.706l-2.424 1.455v-2.941l2.424-1.455v2.941zM55.17 36.65l-4.424 2.654v5.271l4.424-2.652V36.65zm-1 4.709l-2.424 1.453v-2.941l2.424-1.453v2.941zm-17.671-4.763h-1v3.422h1v-3.422zM9.922 21.095h-1v3.424h1v-3.424zm2.571 1.715h-1v3.424h1V22.81zm2.572 1.714h-1v3.423h1v-3.423zm49.691-5.331l-4.424 2.655v5.273l4.424-2.653v-5.275zm-1 4.709l-2.424 1.454v-2.941l2.424-1.455v2.942z"/></svg>

<svg version="1.1" id="Layer_1" xmlns="http://www.w3.org/2000/svg" xmlns:xlink="http://www.w3.org/1999/xlink" x="0px" y="0px"
	 width="104px" height="80px" viewBox="-16 -24 104 80" enable-background="new -16 -24 104 80" xml:space="preserve">
<path class="hidden" d="M79.003,31.392c-0.531,0-0.963-0.432-0.963-0.963s0.432-0.964,0.963-0.964h4.533
	c0.531,0,0.964,0.433,0.964,0.964s-0.433,0.963-0.964,0.963H79.003z M-11.537,31.392c-0.531,0-0.963-0.432-0.963-0.963
	s0.432-0.964,0.963-0.964h4.529c0.533,0,0.967,0.433,0.967,0.964s-0.434,0.963-0.967,0.963H-11.537z M75.734,14.93
	c-0.392,0-0.741-0.235-0.89-0.599c-0.199-0.49,0.034-1.053,0.521-1.255l2.094-0.863c0.118-0.048,0.241-0.073,0.367-0.073
	c0.392,0,0.74,0.233,0.889,0.595c0.2,0.489-0.032,1.053-0.52,1.256l-2.093,0.867C75.981,14.907,75.859,14.93,75.734,14.93z
	 M-3.736,14.929c-0.124,0-0.246-0.023-0.362-0.069l-2.097-0.868c-0.487-0.204-0.722-0.766-0.526-1.254
	c0.153-0.366,0.502-0.598,0.894-0.598c0.128,0,0.253,0.025,0.372,0.074l2.087,0.859c0.487,0.204,0.722,0.767,0.527,1.255
	C-2.999,14.697-3.348,14.929-3.736,14.929z M66.418,0.981c-0.259,0-0.501-0.099-0.684-0.28c-0.184-0.185-0.284-0.426-0.284-0.684
	s0.101-0.5,0.282-0.682l3.195-3.204C69.11-4.05,69.353-4.15,69.61-4.15c0.256,0,0.497,0.099,0.68,0.278
	c0.378,0.38,0.378,0.991,0.004,1.366l-3.196,3.205C66.92,0.878,66.672,0.981,66.418,0.981z M5.586,0.981
	c-0.259,0-0.501-0.101-0.684-0.284L1.706-2.506C1.331-2.882,1.332-3.494,1.708-3.869C1.891-4.051,2.132-4.15,2.389-4.15
	c0.259,0,0.501,0.101,0.683,0.283l3.196,3.204c0.181,0.18,0.282,0.422,0.282,0.68c0,0.259-0.101,0.501-0.284,0.684
	C6.086,0.879,5.838,0.981,5.586,0.981z M52.459-8.35c-0.116,0-0.234-0.022-0.352-0.066c-0.508-0.212-0.74-0.777-0.537-1.268
	l0.865-2.084c0.151-0.363,0.501-0.597,0.89-0.597c0.128,0,0.252,0.025,0.369,0.075c0.235,0.097,0.423,0.282,0.521,0.52
	c0.099,0.237,0.1,0.499,0.001,0.736l-0.863,2.087C53.208-8.59,52.849-8.35,52.459-8.35z M19.538-8.35
	c-0.389,0-0.738-0.233-0.89-0.594l-0.863-2.089c-0.203-0.493,0.032-1.058,0.522-1.259c0.117-0.048,0.24-0.072,0.366-0.072
	c0.397,0,0.748,0.236,0.893,0.602l0.863,2.078c0.098,0.238,0.098,0.5-0.001,0.739s-0.285,0.424-0.522,0.522
	C19.794-8.375,19.666-8.35,19.538-8.35z M36-11.617c-0.531,0-0.963-0.434-0.963-0.967v-4.525c0-0.531,0.432-0.963,0.963-0.963
	s0.963,0.432,0.963,0.963v4.525C36.963-12.05,36.531-11.617,36-11.617z"/>
<linearGradient id="SVGID_1_" gradientUnits="userSpaceOnUse" x1="683.6299" y1="654.9941" x2="745.6104" y2="654.9941" gradientTransform="matrix(1 0 0 1 -678.6201 -627.6201)">
	<stop  offset="0" style="stop-color:#0ED0FF"/>
	<stop  offset="1" style="stop-color:#42D67E"/>
</linearGradient>
<path fill="url(#SVGID_1_)" d="M64.355,27.429l2.143-1.254v-8.9l0.488-0.285l-0.488-0.287l0,0l-30.5-17.956l-30.5,17.956l0,0
	L5.011,16.99l0.488,0.284v8.9l2.135,1.25L5.01,28.967l0.488,0.285v8.9l30.247,17.701L35.998,56l30.5-17.848v-8.901l0.492-0.287
	L64.355,27.429z M35.999-0.093l29.013,17.08L35.999,33.963L6.986,16.985L35.999-0.093z M6.499,25.602v-7.742l29.247,17.114
	l0.253,0.148l29.5-17.263v7.742l-2.133,1.249h-0.003L35.999,42.863L8.875,26.992l-0.076-0.044L6.499,25.602z M8.623,28.002
	l27.123,15.871l0.253,0.148l27.367-16.015l1.643,0.958l-29.01,16.977L6.987,28.965L8.623,28.002z M65.498,37.58l-29.5,17.262
	L6.498,37.58v-7.742l29.247,17.113l0.253,0.148l29.5-17.263V37.58z M35.499,51.998h1v-3.424h-1V51.998z M8.922,36.499h1v-3.424h-1
	V36.499z M11.493,38.211h1V34.79h-1V38.211z M14.065,39.926h1v-3.424h-1V39.926z M59.963,33.913l-4.424,2.654v5.273l4.424-2.654
	V33.913z M58.963,38.619l-2.424,1.455v-2.941l2.424-1.455V38.619z M55.17,36.65l-4.424,2.654v5.271l4.424-2.652V36.65z
	 M54.17,41.359l-2.424,1.453v-2.941l2.424-1.453V41.359z M36.499,36.596h-1v3.422h1V36.596z M9.922,21.095h-1v3.424h1V21.095z
	 M12.493,22.81h-1v3.424h1V22.81z M15.065,24.524h-1v3.423h1V24.524z M64.756,19.193l-4.424,2.655v5.273l4.424-2.653V19.193z
	 M63.756,23.902l-2.424,1.454v-2.941l2.424-1.455V23.902z"/>
</svg>
